openframe-frontend-core/src/components/icons-v2/brand-logos/adobe-pr.svg

<svg width="24" height="24" viewBox="0 0 24 24" fill="none" xmlns="http://www.w3.org/2000/svg">
<path d="M19.875 6C19.875 4.96447 19.0355 4.125 18 4.125H6C4.96447 4.125 4.125 4.96447 4.125 6V18C4.125 19.0355 4.96447 19.875 6 19.875H18C19.0355 19.875 19.875 19.0355 19.875 18V6ZM22.125 18C22.125 20.2782 20.2782 22.125 18 22.125H6C3.72183 22.125 1.875 20.2782 1.875 18V6C1.875 3.72183 3.72183 1.875 6 1.875H18C20.2782 1.875 22.125 3.72183 22.125 6V18Z" fill="#888888"/>
<path d="M10.375 10.25C10.375 9.62868 9.87132 9.125 9.25 9.125H8.125V11.375H9.25C9.87132 11.375 10.375 10.8713 10.375 10.25ZM13.8745 15.9995V11C13.8745 10.3788 14.3784 9.87526 14.9995 9.875C15.3396 9.875 15.6414 10.029 15.8477 10.2676C16.3485 10.0161 16.9107 9.875 17.5 9.875C18.1213 9.875 18.625 10.3787 18.625 11C18.625 11.6213 18.1213 12.125 17.5 12.125C16.8594 12.125 16.3023 12.5498 16.1245 13.1606V15.9995C16.1245 16.6208 15.6208 17.1245 14.9995 17.1245C14.3784 17.1242 13.8745 16.6207 13.8745 15.9995ZM12.625 10.25C12.625 12.114 11.114 13.625 9.25 13.625H8.125V15.9995C8.125 16.6208 7.62132 17.1245 7 17.1245C6.37868 17.1245 5.875 16.6208 5.875 15.9995V8.21387C5.87523 7.47453 6.47453 6.87523 7.21387 6.875H9.25C11.114 6.875 12.625 8.38604 12.625 10.25Z" fill="#888888"/>
</svg>

<svg xmlns="http://www.w3.org/2000/svg" width="24" height="24" fill="none" viewBox="0 0 24 24">
  <path fill="#888" d="M19.875 6c0-1.036-.84-1.875-1.875-1.875H6c-1.036 0-1.875.84-1.875 1.875v12c0 1.035.84 1.875 1.875 1.875h12c1.035 0 1.875-.84 1.875-1.875V6Zm2.25 12A4.125 4.125 0 0 1 18 22.125H6A4.125 4.125 0 0 1 1.875 18V6A4.125 4.125 0 0 1 6 1.875h12A4.125 4.125 0 0 1 22.125 6v12Z"/>
  <path fill="#888" d="M10.375 10.25c0-.621-.504-1.125-1.125-1.125H8.125v2.25H9.25c.621 0 1.125-.504 1.125-1.125Zm3.5 5.75v-5a1.12 1.12 0 0 1 1.973-.732 3.675 3.675 0 0 1 1.652-.393 1.125 1.125 0 0 1 0 2.25c-.64 0-1.198.425-1.375 1.036v2.838a1.125 1.125 0 0 1-2.25 0Zm-1.25-5.75a3.375 3.375 0 0 1-3.375 3.375H8.125v2.374a1.125 1.125 0 0 1-2.25 0V8.214c0-.74.6-1.339 1.339-1.339H9.25a3.375 3.375 0 0 1 3.375 3.375Z"/>
</svg>
